X: 32139
T: Peter McArdle's
R: polka
M: 2/4
K: Edorian
e>d|:cA A/B/A/G/|EA A/B/A/G/|BG G/A/B/c/|d2 e>d|
cA A/B/A/G/|EA A/B/A/G/|BG G/A/B/c/|1 d2 e>d:|2 d2 Bd||
ea a>b|ag ed|ea ab|g2 g>f|
ea a>b|ag ed|BG G/A/B/c/|d2 Bd|
ea a>b|ag ed|ea ab|g2 g>a|
bg/b/ af/a/|ge/g/ f>d|BG G/A/B/c/|d2 e>d||

